X:149
T: Hammerschmied (2-51) S. 163
N: P0924
O: Lothringen
S: PINCK, Louis: Verklingende Weisen, Bd 2, Metz 1928]
R: Arbeits-, Berufslied]
M: 2/4
L: 1/16
K: G
D2G2G4 | F2G2A4 |
F2G2A2A2 | A2B2A4 |
A2B2A4 | A2B2c4 |
B2d2d3A | A2A2A4 |
A2G2F2E2 | D8 |
d6e2 | d3cB4 |
A3GF2E2 | D2zEF2D2 | G2F2G2A2 | B3AG2F2 | E4c3c | c6
D2 | B3cB4 | A3GF3E | D3EF2D2 | G4B3A | G4z4

@@@ Tune index: 7699
